X: 37
T:I skovens dybe stille ro
M:2/4
L:1/8
Q:1/4=100
C:anon.
O:Denmark
Z:Transcribed by Frank Nordberg - http://www.musicaviva.com
K:D
%http://www.musicaviva.com/abc/denmark.abc
D/F/|"D"AA "A"AA/B/|"D"AA/F/ "Bm"DD/E/|"D"FF/G/ "A7"EC|"D"D2 z:|
D/F/|"D"AA AA|"G"B>G "D"A"B"B|"Em"GG "A7"GA|"D"F2 z F|
"G"BB BB|"A"AF "Bm"DD/E/|"D"FF/G/ "A7"EC|"D"D2 z|]
W:
W: From "Falaleiro" http://home.t-online.de/home/pheld/homepage.htm

